symbols/web/folder_shared/materialsymbolsoutlined/folder_shared_wght100_20px.svg

<svg xmlns="http://www.w3.org/2000/svg" height="20" width="20"><path d="M12.5 10.583q.5 0 .833-.333.334-.333.334-.833 0-.5-.334-.834Q13 8.25 12.5 8.25q-.5 0-.833.333-.334.334-.334.834 0 .5.334.833.333.333.833.333ZM9.875 13.5h5.25v-.104q0-.667-.687-1.031Q13.75 12 12.5 12t-1.938.365q-.687.364-.687 1.031Zm-5.792 2.083q-.583 0-.958-.375t-.375-.958V6.583q0-.583.375-.958t.958-.375h5l.917.917h5.917q.583 0 .958.375t.375.958v6.75q0 .583-.375.958t-.958.375Zm-.666-9v7.667q0 .292.187.479.188.188.479.188h11.834q.291 0 .479-.188.187-.187.187-.479V7.5q0-.292-.187-.479-.188-.188-.479-.188H9.729l-.917-.916H4.083q-.291 0-.479.187-.187.188-.187.479Zm0 0V5.917v9-.667Z"/></svg>

<svg xmlns="http://www.w3.org/2000/svg" height="20" width="20"><path d="M12.5 10.583Q13 10.583 13.333 10.25Q13.667 9.917 13.667 9.417Q13.667 8.917 13.333 8.583Q13 8.25 12.5 8.25Q12 8.25 11.667 8.583Q11.333 8.917 11.333 9.417Q11.333 9.917 11.667 10.25Q12 10.583 12.5 10.583ZM9.875 13.5H15.125V13.396Q15.125 12.729 14.438 12.365Q13.75 12 12.5 12Q11.25 12 10.562 12.365Q9.875 12.729 9.875 13.396ZM4.083 15.583Q3.5 15.583 3.125 15.208Q2.75 14.833 2.75 14.25V6.583Q2.75 6 3.125 5.625Q3.5 5.25 4.083 5.25H9.083L10 6.167H15.917Q16.5 6.167 16.875 6.542Q17.25 6.917 17.25 7.5V14.25Q17.25 14.833 16.875 15.208Q16.5 15.583 15.917 15.583ZM3.417 6.583V14.25Q3.417 14.542 3.604 14.729Q3.792 14.917 4.083 14.917H15.917Q16.208 14.917 16.396 14.729Q16.583 14.542 16.583 14.25V7.5Q16.583 7.208 16.396 7.021Q16.208 6.833 15.917 6.833H9.729L8.812 5.917H4.083Q3.792 5.917 3.604 6.104Q3.417 6.292 3.417 6.583ZM3.417 6.583Q3.417 6.292 3.417 6.104Q3.417 5.917 3.417 5.917V6.833Q3.417 6.833 3.417 7.021Q3.417 7.208 3.417 7.5V14.25Q3.417 14.542 3.417 14.729Q3.417 14.917 3.417 14.917Q3.417 14.917 3.417 14.729Q3.417 14.542 3.417 14.25Z"/></svg>
